X:03112
T:Muileann Dubh
T:The Black Snuff Mill
T:The Oyster Wive's Rant
R:Reel
B:RSCDS 3-11(b)
Z: 1997 by John Chambers
M:4/4
L:1/8
%--------------------
K:ADor
|: a2 |\
"Am "edef g2fe | "G" dGdB dGGg | "Am" edef g2fe | "G" dBgB "Am" A2 :|
a2 |\
"Am" eAed eAAB | "G" dGdB dGGd | "Am" eAed eAAB | "G" dGdB "Am" A2  |
a2 |\
"Am" eAed eAAB | "G" dGdB dGGd | "Am" edef "Em" gbeg | "G" dBgB "Am"A2 |]
